Origami/22x22/apps/mps.svg

<svg width="22" height="22" version="1" xmlns="http://www.w3.org/2000/svg">
 <path d="m11 1h-9c-0.554 0-1 0.446-1 1v9h10z" style="fill:#f7c73c"/>
 <path d="m11 1h9c0.554 0 1 0.446 1 1v9h-10z" style="fill:#21d789"/>
 <path d="m11 21h-9c-0.554 0-1-0.446-1-1v-9h10z" style="fill:#21d789"/>
 <path d="m11 21h9c0.554 0 1-0.446 1-1v-9h-10z" style="fill:#2086e7"/>
 <path d="m2 1c-0.554 0-1 0.446-1 1v0.5c0-0.554 0.446-1 1-1h18c0.554 0 1 0.446 1 1v-0.5c0-0.554-0.446-1-1-1z" style="fill:#ffffff;opacity:.2"/>
 <path d="m2 21.5c-0.554 0-1-0.446-1-1v-0.5c0 0.554 0.446 1 1 1h18c0.554 0 1-0.446 1-1v0.5c0 0.554-0.446 1-1 1z" style="opacity:.2"/>
 <rect x="4" y="4" width="14" height="14" style="fill:#3f3f3f"/>
 <path d="m6.5042927 14.99995h4.0000003" style="fill:none;opacity:.2;stroke-linecap:round;stroke:#000000"/>
 <path d="m6.5042927 14.5h4.0000003" style="fill:none;stroke-linecap:round;stroke:#ffffff"/>
 <path d="m8.5042927 10.999952v-4.000001m-3 0 1.5 1.999999 1.5-1.999999m-3 4v-4" style="fill:none;opacity:.2;stroke-linecap:round;stroke-linejoin:round;stroke-width:.99999994;stroke:#000000"/>
 <path d="m8.5042927 10.500002v-4.000001m-3 0 1.5 1.999999 1.5-1.999999m-3 4.000001v-4.000001" style="fill:none;stroke-linecap:round;stroke-linejoin:round;stroke-width:.99999994;stroke:#ffffff"/>
 <path d="m10.507074 8.99995s2.000002 0.23225 2.000002-0.9999985c0-1.2322505-2.000002-1.0000005-2.000002-1.0000005m4.9e-5 4.000049v-4" style="fill:none;opacity:.2;stroke-linecap:round;stroke-linejoin:bevel;stroke-width:.99999994;stroke:#000000"/>
 <path d="m10.507074 8.5s2.000002 0.23225 2.000002-0.9999985c0-1.2322505-2.000002-1.0000005-2.000002-1.0000005m4.9e-5 4.00005v-4.000001" style="fill:none;stroke-linecap:round;stroke-linejoin:bevel;stroke-width:.99999994;stroke:#ffffff"/>
 <path d="m14.503232 10.49995s0.252193 0.500484 1 0.500242c0.747806-2.4e-4 0.999999-0.500242 0.999999-1.000241 0-2.1071925-1.999999 0.105581-1.994009-1.9953525-6e-3 -0.5046485 0.235933-1.0046475 0.99401-1.0046475 0.758075 0 0.999942 0.499999 0.999942 0.499999" style="fill:none;opacity:.2;stroke-linecap:round;stroke-linejoin:round;stroke-width:.99999994;stroke:#000000"/>
 <path d="m14.503232 10s0.252193 0.500484 1 0.500242c0.747806-2.4e-4 0.999999-0.500242 0.999999-1.000241 0-2.1071925-1.999999 0.105581-1.994009-1.9953525-0.006044-0.5046485 0.235934-1.0046475 0.99401-1.0046475 0.758075 0 0.999942 0.499999 0.999942 0.499999" style="fill:none;stroke-linecap:round;stroke-linejoin:round;stroke-width:.99999994;stroke:#ffffff"/>
</svg>

<svg xmlns="http://www.w3.org/2000/svg" width="22" height="22" version="1">
 <path style="fill:#f7c73c" d="M 11,1 H 2 C 1.446,1 1,1.446 1,2 v 9 h 10 z"/>
 <path style="fill:#21d789" d="m 11,1 h 9 c 0.554,0 1,0.446 1,1 v 9 H 11 Z"/>
 <path style="fill:#21d789" d="M 11,21 H 2 C 1.446,21 1,20.554 1,20 v -9 h 10 z"/>
 <path style="fill:#2086e7" d="m 11,21 h 9 c 0.554,0 1,-0.446 1,-1 V 11 H 11 Z"/>
 <path style="opacity:0.2;fill:#ffffff" d="M 2,1 C 1.446,1 1,1.446 1,2 v 0.5 c 0,-0.554 0.446,-1 1,-1 h 18 c 0.554,0 1,0.446 1,1 V 2 C 21,1.446 20.554,1 20,1 Z"/>
 <path style="opacity:0.2" d="m 2,21.5 c -0.554,0 -1,-0.446 -1,-1 V 20 c 0,0.554 0.446,1 1,1 h 18 c 0.554,0 1,-0.446 1,-1 v 0.5 c 0,0.554 -0.446,1 -1,1 z"/>
 <rect style="fill:#3f3f3f" width="14" height="14" x="4" y="4"/>
 <path style="opacity:0.2;fill:none;stroke:#000000;stroke-linecap:round" d="M 6.5042927,14.99995 H 10.504293"/>
 <path style="fill:none;stroke:#ffffff;stroke-linecap:round" d="M 6.5042927,14.5 H 10.504293"/>
 <path style="opacity:0.2;fill:none;stroke:#000000;stroke-width:0.99999994;stroke-linecap:round;stroke-linejoin:round" d="M 8.5042927,10.999952 V 6.999951 m -3,0 1.5,1.999999 1.5,-1.999999 m -3,4 v -4"/>
 <path style="fill:none;stroke:#ffffff;stroke-width:0.99999994;stroke-linecap:round;stroke-linejoin:round" d="M 8.5042927,10.500002 V 6.500001 m -3,0 1.5,1.999999 1.5,-1.999999 m -3,4.000001 V 6.500001"/>
 <path style="opacity:0.2;fill:none;stroke:#000000;stroke-width:0.99999994;stroke-linecap:round;stroke-linejoin:bevel" d="m 10.507074,8.99995 c 0,0 2.000002,0.23225 2.000002,-0.9999985 0,-1.2322505 -2.000002,-1.0000005 -2.000002,-1.0000005 M 10.507123,11 V 7"/>
 <path style="fill:none;stroke:#ffffff;stroke-width:0.99999994;stroke-linecap:round;stroke-linejoin:bevel" d="m 10.507074,8.5 c 0,0 2.000002,0.23225 2.000002,-0.9999985 0,-1.2322505 -2.000002,-1.0000005 -2.000002,-1.0000005 m 4.9e-5,4.00005 V 6.50005"/>
 <path style="opacity:0.2;fill:none;stroke:#000000;stroke-width:0.99999994;stroke-linecap:round;stroke-linejoin:round" d="m 14.503232,10.49995 c 0,0 0.252193,0.500484 1,0.500242 0.747806,-2.4e-4 0.999999,-0.500242 0.999999,-1.000241 0,-2.1071925 -1.999999,0.105581 -1.994009,-1.9953525 -0.006,-0.5046485 0.235933,-1.0046475 0.99401,-1.0046475 0.758075,0 0.999942,0.499999 0.999942,0.499999"/>
 <path style="fill:none;stroke:#ffffff;stroke-width:0.99999994;stroke-linecap:round;stroke-linejoin:round" d="m 14.503232,10 c 0,0 0.252193,0.500484 1,0.500242 0.747806,-2.4e-4 0.999999,-0.500242 0.999999,-1.000241 0,-2.1071925 -1.999999,0.105581 -1.994009,-1.9953525 C 14.503178,7 14.745156,6.500001 15.503232,6.500001 16.261307,6.500001 16.503174,7 16.503174,7"/>
</svg>
